X: 110
T: Szczęśliwy człowiek prawdziwie,
C: Mikołaj Gomółka
%%abc-version 2.0
%%abcx-abcm2ps-target-version 5.9.1 (29 Sep 2008)
%%abc-creator hum2abc beta
%%abcx-conversion-date 2021/10/04 07:59:10
%%abc-edited-by Anna Matuszewska
%%abcx-initial-encoding-date 2020-02-18
%%humdrum-veritas 3509251987
%%humdrum-veritas-data 2502704624
%%linebreak <none>
%%barnumbers 0
L: 1/4
M: C|
N: Derived from pl-wn--sd-xvi-qu-273--112_gomolka-mikolaj--szczesliwy-czlowiek-prawdziwie.krn
%%staves [1 2 3 4]
V: 1 clef=treble
V: 2 clef=alto
V: 3 clef=alto
V: 4
K: C
[V:1] G4G2A3 [I:setbarnb 3][|] 
[V:2] D4E2F2 [|] 
[V:3] B,4C2C2 [|] 
[V:4] G,4C,2F,3 [|] 
[V:1] Bc2c2BA [|] 
[V:2] C2>D2E2F2 [|] 
[V:3] F2F2E2DC [|] 
[V:4] G,A,2A,2A,2 [|] 
[V:1] B2d2e3d [|] 
[V:2] G2G2>F2E3 [|] 
[V:3] D4C3B, [|] 
[V:4] G,2G,2C,2E,2 [|] 
[V:1] c2BA2<B2A [|] 
[V:2] FG2G3F [|] 
[V:3] CDE2D3C [|] 
[V:4] A,2E,F,G,2G,2 [|] 
[V:1] G2G4F2 [|] 
[V:2] EDE2D3C [|] 
[V:3] B,2CB,A,G,A,2 [|] 
[V:4] G,2C,2D,4 [|] 
[V:1] G2B2c3A [|] 
[V:2] B,2G2G3F [|] 
[V:3] G,2D2EDEF [|] 
[V:4] G,2G,2C,3D, [|] 
[V:1] GABcdcc4 [|] 
[V:2] E2D2D2EF [|] 
[V:3] G2>G2FEED/C/ [|] 
[V:4] E,F,G,A,B,2C2 [|] 
[V:1] B2c2c2 [|] 
[V:2] G2>F2E2A2 [|] 
[V:3] D4C2F2 [|] 
[V:4] G,4A,2F,2 [|] 
[V:1] c2c4BA [|] 
[V:2] G2G2E2C2 [|] 
[V:3] E2>D2CB,C2 [|] 
[V:4] C,2CB,A,G,A,2 [|] 
[V:1] B2GABc2B [|] 
[V:2] D2EF2<G2F [|] 
[V:3] B,2C2D4 [|] 
[V:4] G,2C,2G,4 [|] 
[V:1] c8 [|] 
[V:2] E8 [|] 
[V:3] C8 [|] 
[V:4] C,8 [|] 


